private/icons/dark/kt-magnet.svg

<svg viewBox="0 0 32 32" xmlns="http://www.w3.org/2000/svg"><path d="m29.52 10.8c0-1.77 0-3.54 0-5.32a1.88 1.88 0 0 0 -1.88-2q-2.78 0-5.55 0a1.75 1.75 0 0 0 -1.66 1.12 2.54 2.54 0 0 0 -.2 1c0 3.22 0 6.44-.08 9.66a4.52 4.52 0 0 1 -1.47 3.24 4 4 0 0 1 -5.94-.63 6 6 0 0 1 -1-3.43v-8.92a1.9 1.9 0 0 0 -1.91-2c-1.83 0-3.66 0-5.49 0a2.33 2.33 0 0 0 -1 .34 1.83 1.83 0 0 0 -.87 1.74v2.84s0 2.13 0 3.19c0 .8.07 1.59 0 2.38a16.8 16.8 0 0 0 .08 3.25 12.21 12.21 0 0 0 3.14 6.58 14.37 14.37 0 0 0 5 3.52 12.9 12.9 0 0 0 7.65.89 14 14 0 0 0 7.89-4.42 12.13 12.13 0 0 0 3.23-8.2c0-1.61 0-3.22 0-4.83zm-24.74-5.35h2.35 2.36c.25 0 .36.08.35.35v4.2c0 .26-.09.33-.34.33h-4.7c-.24 0-.35-.07-.35-.32 0-1.38 0-2.76 0-4.14-.06-.32.04-.42.33-.42zm22.76 4.55c0 .23-.09.32-.32.32h-4.77c-.22 0-.3-.08-.3-.3v-4.26c0-.24.11-.31.33-.31h2.38 2.33c.29 0 .41.07.4.39 0 1.38 0 2.75-.05 4.13z" fill="#aa3535"/><g fill="#fff"><path d="m4.78 5.45h2.35 2.36c.25 0 .36.08.35.35v4.2c0 .26-.09.33-.34.33h-4.7c-.24 0-.35-.07-.35-.32 0-1.38 0-2.76 0-4.14-.06-.32.04-.42.33-.42z"/><path d="m27.54 10c0 .23-.09.32-.32.32h-4.77c-.22 0-.3-.08-.3-.3v-4.26c0-.24.11-.31.33-.31h2.38 2.33c.29 0 .41.07.4.39 0 1.38 0 2.75-.05 4.13z"/></g></svg>

<svg id="Layer_1" data-name="Layer 1" xmlns="http://www.w3.org/2000/svg" viewBox="0 0 32 32"><defs><style>.cls-1{fill:#aa3535;}.cls-2{fill:#fff;}</style></defs><path class="cls-1" d="M29.52,10.8c0-1.77,0-3.54,0-5.32a1.88,1.88,0,0,0-1.88-2q-2.78,0-5.55,0A1.75,1.75,0,0,0,20.43,4.6a2.54,2.54,0,0,0-.2,1c0,3.22,0,6.44-.08,9.66a4.52,4.52,0,0,1-1.47,3.24,4,4,0,0,1-5.94-.63,6,6,0,0,1-1-3.43V5.52a1.9,1.9,0,0,0-1.91-2c-1.83,0-3.66,0-5.49,0a2.33,2.33,0,0,0-1,.34A1.83,1.83,0,0,0,2.47,5.6c0,1,0,1.89,0,2.84s0,2.13,0,3.19c0,.8.07,1.59,0,2.38a16.8,16.8,0,0,0,.08,3.25,12.21,12.21,0,0,0,3.14,6.58,14.37,14.37,0,0,0,5,3.52,12.9,12.9,0,0,0,7.65.89,14,14,0,0,0,7.89-4.42,12.13,12.13,0,0,0,3.23-8.2c0-1.61,0-3.22,0-4.83ZM4.78,5.45c.78,0,1.57,0,2.35,0H9.49c.25,0,.36.08.35.35V10c0,.26-.09.33-.34.33H4.8c-.24,0-.35-.07-.35-.32,0-1.38,0-2.76,0-4.14C4.39,5.55,4.49,5.45,4.78,5.45ZM27.54,10c0,.23-.09.32-.32.32H22.45c-.22,0-.3-.08-.3-.3V5.76c0-.24.11-.31.33-.31h2.38c.78,0,1.55,0,2.33,0,.29,0,.41.07.4.39,0,1.38,0,2.75-.05,4.13Z"/><path class="cls-2" d="M4.78,5.45c.78,0,1.57,0,2.35,0H9.49c.25,0,.36.08.35.35V10c0,.26-.09.33-.34.33H4.8c-.24,0-.35-.07-.35-.32,0-1.38,0-2.76,0-4.14C4.39,5.55,4.49,5.45,4.78,5.45Z"/><path class="cls-2" d="M27.54,10c0,.23-.09.32-.32.32H22.45c-.22,0-.3-.08-.3-.3V5.76c0-.24.11-.31.33-.31h2.38c.78,0,1.55,0,2.33,0,.29,0,.41.07.4.39,0,1.38,0,2.75-.05,4.13Z"/></svg>
